build/img/svg/icon-elastic.svg

<svg width="16" height="16" viewBox="0 0 16 16" fill="none" xmlns="http://www.w3.org/2000/svg">
<path d="M1.90962 15C1.78939 14.9988 1.67059 14.9738 1.5601 14.9265C1.44961 14.8791 1.34962 14.8103 1.26594 14.7241C1.15586 14.6147 1.07591 14.4787 1.03381 14.3294C0.991707 14.1801 0.988878 14.0224 1.0256 13.8717C1.42617 12.2137 2.10576 9.237 2.10576 7.99282C2.10576 6.74863 1.42893 3.78851 1.03112 2.13051C0.993084 1.97808 0.995193 1.81841 1.03724 1.66704C1.07929 1.51566 1.15985 1.37773 1.27109 1.26664C1.38232 1.15556 1.52045 1.07512 1.67203 1.03313C1.82362 0.991135 1.98351 0.989029 2.13615 1.02701C3.79369 1.44634 6.76346 2.14982 8.00662 2.14982C9.24977 2.14982 12.203 1.4491 13.8577 1.04632C14.0113 1.00545 14.1729 1.00587 14.3262 1.04754C14.4795 1.08921 14.6191 1.17064 14.7307 1.28358C14.8429 1.39509 14.9238 1.53399 14.9655 1.68645C15.0072 1.83892 15.0081 1.99962 14.9683 2.15258C14.5401 3.80782 13.8274 6.7569 13.8274 7.99557C13.8274 9.23425 14.5373 12.1999 14.9738 13.8579C15.0109 14.0089 15.0086 14.1669 14.9671 14.3168C14.9257 14.4667 14.8464 14.6035 14.737 14.7142C14.6276 14.8248 14.4916 14.9056 14.3421 14.9489C14.1925 14.9922 14.0343 14.9965 13.8826 14.9614C12.2251 14.5724 9.25253 13.9186 8.01214 13.9186C6.77174 13.9186 3.7854 14.5752 2.11957 14.9669C2.05113 14.9861 1.98066 14.9972 1.90962 15V15ZM1.90962 1.4822C1.8457 1.48292 1.78276 1.49802 1.72548 1.52636C1.6682 1.55471 1.61806 1.59559 1.57877 1.64595C1.53949 1.69631 1.51207 1.75487 1.49857 1.81726C1.48506 1.87966 1.48581 1.9443 1.50076 2.00636C1.90409 3.68367 2.58092 6.69621 2.58092 7.98178C2.58092 9.26735 1.90686 12.3185 1.50076 13.9903C1.48308 14.0604 1.48397 14.1339 1.50334 14.2035C1.52272 14.2732 1.55991 14.3366 1.61126 14.3876C1.66246 14.4386 1.72586 14.4758 1.79547 14.4956C1.86509 14.5154 1.9386 14.5172 2.00907 14.5007C3.69424 14.1034 6.70544 13.4386 8.01214 13.4386C9.31884 13.4386 12.3273 14.1007 13.9848 14.4952C14.0569 14.5145 14.1328 14.5144 14.2048 14.4949C14.2768 14.4755 14.3424 14.4373 14.3948 14.3844C14.4473 14.3314 14.4848 14.2655 14.5035 14.1934C14.5223 14.1213 14.5215 14.0455 14.5014 13.9738V13.9738C14.0677 12.2937 13.3384 9.2839 13.3384 7.9873C13.3384 6.69069 14.0649 3.70023 14.4959 2.02843C14.5152 1.95756 14.5151 1.88282 14.4957 1.81199C14.4762 1.74115 14.4382 1.67681 14.3854 1.62566C14.3342 1.57366 14.2704 1.53588 14.2001 1.51605C14.1299 1.49621 14.0557 1.49501 13.9848 1.51255C12.3079 1.93464 9.30502 2.64363 8.0149 2.64363C6.71926 2.64363 3.70529 1.93188 2.02288 1.50703C1.98769 1.49797 1.95149 1.49334 1.91514 1.49324L1.90962 1.4822Z" fill="white"/>
<path d="M5.13618 10.6296L3.48266 12.2594L3.45817 11.4186C3.45745 11.3935 3.4518 11.3689 3.44154 11.346C3.43127 11.3232 3.4166 11.3026 3.39836 11.2855C3.38012 11.2683 3.35867 11.255 3.33522 11.2461C3.31178 11.2373 3.28682 11.2332 3.26175 11.2341C3.23668 11.2349 3.212 11.2406 3.18912 11.251C3.16624 11.2613 3.1456 11.2761 3.12839 11.2944C3.11118 11.3127 3.09773 11.3342 3.08882 11.3577C3.0799 11.3812 3.0757 11.4062 3.07643 11.4312L3.11381 12.7086C3.1138 12.7151 3.1154 12.721 3.11593 12.7269C3.11646 12.7329 3.11699 12.7366 3.11806 12.7415C3.11953 12.7482 3.1214 12.7548 3.12369 12.7612C3.12557 12.7669 3.12718 12.7723 3.12933 12.7777C3.13191 12.7835 3.13487 12.7892 3.1382 12.7946C3.14084 12.7999 3.1438 12.8051 3.14708 12.81C3.15093 12.8157 3.15526 12.8212 3.16 12.8262C3.16324 12.8294 3.1662 12.8324 3.16943 12.8356C3.17267 12.8388 3.17105 12.8372 3.17186 12.838L3.1759 12.8421C3.21024 12.8773 3.25692 12.8978 3.30617 12.8993L4.58352 12.9367C4.6096 12.9374 4.63556 12.9328 4.65982 12.9231C4.68408 12.9134 4.70611 12.8988 4.72455 12.8803C4.75892 12.8459 4.779 12.7998 4.78069 12.7514C4.78153 12.7263 4.77742 12.7013 4.7686 12.6779C4.75978 12.6545 4.74642 12.633 4.72928 12.6148C4.71215 12.5965 4.69157 12.5818 4.66873 12.5716C4.64589 12.5613 4.62123 12.5557 4.59617 12.5549L3.75045 12.5305L5.40451 10.9001C5.44038 10.8642 5.46059 10.8157 5.46069 10.765C5.46079 10.7144 5.44078 10.6659 5.40506 10.6302C5.36952 10.5946 5.32132 10.5746 5.27095 10.5745C5.22059 10.5744 5.17215 10.5942 5.13618 10.6296Z" fill="white"/>
<path d="M10.3475 10.8775L11.9773 12.5311L11.1364 12.5556C11.1113 12.5563 11.0867 12.5619 11.0638 12.5722C11.041 12.5825 11.0204 12.5971 11.0033 12.6154C10.9862 12.6336 10.9728 12.6551 10.964 12.6785C10.9552 12.7019 10.9511 12.7269 10.9519 12.752C10.9527 12.7771 10.9585 12.8017 10.9688 12.8246C10.9792 12.8475 10.9939 12.8681 11.0122 12.8853C11.0306 12.9026 11.0521 12.916 11.0755 12.9249C11.099 12.9338 11.124 12.938 11.1491 12.9373L12.4264 12.8999C12.4329 12.8999 12.4388 12.8983 12.4448 12.8978C12.4507 12.8973 12.4545 12.8967 12.4593 12.8957C12.466 12.8942 12.4726 12.8923 12.479 12.89C12.4847 12.8882 12.4901 12.8866 12.4955 12.8844C12.5013 12.8818 12.507 12.8789 12.5125 12.8755C12.5178 12.8729 12.5229 12.8699 12.5278 12.8667C12.5336 12.8628 12.539 12.8585 12.544 12.8537C12.5472 12.8505 12.5502 12.8475 12.5534 12.8443C12.5567 12.8411 12.5551 12.8427 12.5559 12.8419L12.5599 12.8378C12.5951 12.8035 12.6156 12.7568 12.6171 12.7076L12.6545 11.4302C12.6552 11.4041 12.6506 11.3782 12.6409 11.3539C12.6312 11.3297 12.6166 11.3076 12.5981 11.2892C12.5638 11.2548 12.5177 11.2347 12.4692 11.233C12.4441 11.2322 12.4192 11.2363 12.3957 11.2451C12.3723 11.254 12.3508 11.2673 12.3326 11.2844C12.3144 11.3016 12.2997 11.3222 12.2894 11.345C12.2792 11.3678 12.2735 11.3925 12.2728 11.4176L12.2483 12.2633L10.618 10.6092C10.5821 10.5734 10.5335 10.5531 10.4829 10.553C10.4322 10.5529 10.3837 10.573 10.348 10.6087C10.3125 10.6442 10.2925 10.6924 10.2924 10.7428C10.2923 10.7931 10.3121 10.8416 10.3475 10.8775Z" fill="white"/>
<path d="M10.5946 5.66676L12.2481 4.03695L12.2726 4.87781C12.2733 4.90287 12.279 4.92753 12.2892 4.95037C12.2995 4.97321 12.3142 4.99379 12.3324 5.01092C12.3507 5.02806 12.3721 5.04142 12.3955 5.05024C12.419 5.05906 12.444 5.06317 12.469 5.06233C12.4941 5.06151 12.5188 5.05576 12.5417 5.0454C12.5645 5.03504 12.5852 5.02029 12.6024 5.00198C12.6196 4.98367 12.633 4.96216 12.642 4.93869C12.6509 4.91521 12.6551 4.89023 12.6543 4.86516L12.617 3.58781C12.617 3.58133 12.6154 3.5754 12.6148 3.56946C12.6143 3.56352 12.6138 3.55974 12.6127 3.55489C12.6112 3.54821 12.6094 3.54163 12.6071 3.53519C12.6052 3.52953 12.6036 3.52413 12.6014 3.51873C12.5989 3.51288 12.5959 3.50721 12.5926 3.50175C12.5899 3.49644 12.587 3.49131 12.5837 3.48638C12.5798 3.48064 12.5755 3.47523 12.5708 3.47021C12.5675 3.46697 12.5646 3.46401 12.5613 3.46078C12.5581 3.45754 12.5597 3.45916 12.5589 3.45835L12.5549 3.45431C12.5205 3.4191 12.4739 3.39859 12.4246 3.39707L11.1473 3.3597C11.1212 3.35898 11.0952 3.36362 11.071 3.37333C11.0467 3.38303 11.0247 3.3976 11.0062 3.41613C10.9718 3.45047 10.9518 3.49655 10.9501 3.54501C10.9492 3.57008 10.9534 3.59505 10.9622 3.61849C10.971 3.64193 10.9844 3.66338 11.0015 3.68162C11.0186 3.69987 11.0392 3.71454 11.062 3.7248C11.0849 3.73506 11.1095 3.74072 11.1346 3.74144L11.9803 3.76592L10.3263 5.39627C10.2904 5.43214 10.2702 5.48073 10.2701 5.53136C10.27 5.58199 10.29 5.6305 10.3257 5.66623C10.3613 5.70177 10.4095 5.72177 10.4598 5.72187C10.5102 5.72197 10.5586 5.70216 10.5946 5.66676Z" fill="white"/>
<path d="M5.38411 5.41884L3.7543 3.76532L4.59515 3.74083C4.62022 3.74011 4.64488 3.73445 4.66772 3.72419C4.69056 3.71393 4.71113 3.69925 4.72827 3.68101C4.74541 3.66277 4.75877 3.64132 4.76759 3.61788C4.77641 3.59444 4.78052 3.56947 4.77968 3.5444C4.77886 3.51934 4.7731 3.49465 4.76275 3.47177C4.75239 3.44889 4.73764 3.42825 4.71933 3.41104C4.70101 3.39383 4.67951 3.38039 4.65603 3.37147C4.63256 3.36256 4.60757 3.35835 4.58251 3.35909L3.30516 3.39646C3.29868 3.39645 3.29274 3.39806 3.28681 3.39858C3.28087 3.39911 3.27709 3.39964 3.27223 3.40071C3.26556 3.40218 3.25898 3.40406 3.25254 3.40634C3.24687 3.40822 3.24148 3.40983 3.23608 3.41198C3.23023 3.41456 3.22455 3.41753 3.21909 3.42085C3.21379 3.42349 3.20866 3.42646 3.20372 3.42973C3.19799 3.43359 3.19258 3.43791 3.18755 3.44266C3.18432 3.44589 3.18136 3.44885 3.17812 3.45209C3.17489 3.45532 3.17651 3.4537 3.1757 3.45451L3.17166 3.45855C3.13645 3.49289 3.11594 3.53957 3.11442 3.58882L3.07704 4.86617C3.07633 4.89225 3.08097 4.91822 3.09067 4.94247C3.10038 4.96673 3.11495 4.98876 3.13348 5.0072C3.16782 5.04158 3.21389 5.06165 3.26236 5.06334C3.28743 5.06418 3.3124 5.06007 3.33584 5.05125C3.35928 5.04243 3.38073 5.02907 3.39897 5.01194C3.41721 4.9948 3.43188 4.97422 3.44215 4.95138C3.45241 4.92854 3.45806 4.90389 3.45879 4.87882L3.48326 4.0331L5.11362 5.68716C5.14949 5.72304 5.19808 5.74324 5.24871 5.74335C5.29933 5.74345 5.34785 5.72344 5.38357 5.68771C5.41911 5.65217 5.43911 5.60397 5.43921 5.55361C5.43932 5.50325 5.41951 5.4548 5.38411 5.41884Z" fill="white"/>
</svg>

<svg width="16" height="16" fill="none" xmlns="http://www.w3.org/2000/svg"><path d="M1.91 15a.911.911 0 01-.644-.276.901.901 0 01-.24-.852c.4-1.658 1.08-4.635 1.08-5.88 0-1.243-.677-4.203-1.075-5.861a.91.91 0 011.105-1.104c1.658.42 4.627 1.123 5.87 1.123 1.244 0 4.197-.7 5.852-1.104a.902.902 0 01.873.238.904.904 0 01.237.869c-.428 1.655-1.14 4.604-1.14 5.843 0 1.238.71 4.204 1.146 5.862a.908.908 0 01-.632 1.09.913.913 0 01-.46.013c-1.657-.389-4.63-1.042-5.87-1.042-1.24 0-4.227.656-5.892 1.048a.91.91 0 01-.21.033zm0-13.518a.426.426 0 00-.41.524c.404 1.678 1.08 4.69 1.08 5.976 0 1.285-.673 4.337-1.08 6.008a.416.416 0 00.295.506c.07.02.144.021.214.005 1.685-.398 4.696-1.062 6.003-1.062 1.307 0 4.315.662 5.973 1.056a.423.423 0 00.516-.521c-.433-1.68-1.163-4.69-1.163-5.987 0-1.296.727-4.287 1.158-5.959a.41.41 0 00-.11-.402.42.42 0 00-.401-.113c-1.677.422-4.68 1.13-5.97 1.13-1.296 0-4.31-.711-5.992-1.136a.437.437 0 00-.108-.014l-.005-.01z" fill="#fff"/><path d="M5.136 10.63l-1.653 1.63-.025-.841a.19.19 0 10-.382.012l.038 1.278.002.018.002.014a.16.16 0 00.006.02l.005.017a.143.143 0 00.01.017.14.14 0 00.021.031l.01.01.002.002.004.004a.19.19 0 00.13.057l1.278.038a.192.192 0 00.085-.365.191.191 0 00-.073-.017l-.846-.024 1.655-1.63a.192.192 0 000-.27.19.19 0 00-.269-.001zm5.212.247l1.63 1.654-.842.025a.19.19 0 00-.167.269.192.192 0 00.18.112l1.277-.037.019-.002a.11.11 0 00.034-.008l.017-.006a.145.145 0 00.016-.008.144.144 0 00.032-.022l.01-.01.002-.002.004-.004a.19.19 0 00.057-.13l.037-1.278a.192.192 0 00-.365-.085.191.191 0 00-.016.073l-.025.845-1.63-1.654a.192.192 0 00-.27 0 .19.19 0 000 .268zm.247-5.21l1.653-1.63.025.84a.191.191 0 00.123.173.191.191 0 00.258-.185l-.037-1.277-.002-.019a.168.168 0 00-.008-.034l-.006-.016a.137.137 0 00-.008-.017.148.148 0 00-.022-.032l-.01-.01-.002-.002-.004-.004a.19.19 0 00-.13-.057l-1.278-.037a.19.19 0 00-.14.056.192.192 0 00-.005.266.19.19 0 00.133.06l.845.024-1.654 1.63a.192.192 0 000 .27.19.19 0 00.269 0zm-5.211-.248l-1.63-1.654.841-.024a.19.19 0 00.061-.37.191.191 0 00-.073-.012l-1.278.037-.018.003a.166.166 0 00-.034.008l-.017.005a.147.147 0 00-.017.009.145.145 0 00-.031.022l-.01.01-.002.002-.004.004a.19.19 0 00-.058.13l-.037 1.277a.191.191 0 00.382.013l.024-.846 1.63 1.654a.192.192 0 00.27 0 .19.19 0 00.001-.268z" fill="#fff"/></svg>
